source/svg/icons/men.svg

<?xml version="1.0" encoding="UTF-8" standalone="no"?>
<!-- Created with Inkscape (http://www.inkscape.org/) -->
<svg
   xmlns:dc="http://purl.org/dc/elements/1.1/"
   xmlns:cc="http://web.resource.org/cc/"
   xmlns:rdf="http://www.w3.org/1999/02/22-rdf-syntax-ns#"
   xmlns:svg="http://www.w3.org/2000/svg"
   xmlns="http://www.w3.org/2000/svg"
   xmlns:sodipodi="http://sodipodi.sourceforge.net/DTD/sodipodi-0.dtd"
   xmlns:inkscape="http://www.inkscape.org/namespaces/inkscape"
   width="745"
   height="1052"
   viewBox="0 0 745 1052"
   id="svg2"
   sodipodi:version="0.32"
   inkscape:version="0.45"
   sodipodi:modified="true">
  <defs
     id="defs4" />
  <sodipodi:namedview
     id="base"
     pagecolor="#ffffff"
     bordercolor="#666666"
     borderopacity="1.0"
     gridtolerance="10000"
     guidetolerance="10"
     objecttolerance="10"
     inkscape:pageopacity="0.0"
     inkscape:pageshadow="2"
     inkscape:zoom="0.25"
     inkscape:cx="-136.51488"
     inkscape:cy="838.10311"
     inkscape:document-units="px"
     inkscape:current-layer="layer1"
     inkscape:window-width="1016"
     inkscape:window-height="696"
     inkscape:window-x="0"
     inkscape:window-y="0" />
  <metadata
     id="metadata7">
    <rdf:RDF>
      <cc:Work
         rdf:about="">
        <dc:format>image/svg+xml</dc:format>
        <dc:type
           rdf:resource="http://purl.org/dc/dcmitype/StillImage" />
      </cc:Work>
    </rdf:RDF>
  </metadata>
  <g
     inkscape:label="Layer 1"
     inkscape:groupmode="layer"
     id="layer1">
    <path
       style="fill:#000000"
       d="M 302.07468,1018.9879 C 286.25571,1013.7975 273.72731,1002.1224 270.14882,989.23628 C 268.72288,984.1015 268.04339,879.0565 268.03581,662.57732 L 268.02464,343.48701 L 260.00981,343.48701 L 251.99498,343.48701 L 251.99498,463.93754 C 251.99498,582.0174 251.91344,584.53145 247.85195,591.67385 C 242.59122,600.92516 236.68341,605.26002 225.12128,608.3524 C 208.02752,612.9243 189.33348,604.19421 182.62031,588.50452 C 178.30101,578.40967 178.58231,309.1661 182.92959,292.47574 C 192.72875,254.85424 224.46236,224.03277 261.4729,216.19007 C 280.96898,212.05877 461.22336,212.00781 480.66203,216.12811 C 500.46216,220.32503 517.4686,229.81823 532.51666,245.07399 C 547.995,260.76598 555.2203,273.49531 560.60963,294.56739 C 564.3661,309.255 564.57327,317.12085 564.57327,445.05908 C 564.57327,562.00859 564.1613,581.03909 561.49128,587.42934 C 557.33972,597.36544 553.06762,601.83388 543.53434,606.21158 C 527.71428,613.47618 507.6073,608.80266 498.25271,595.68663 L 493.44167,588.94109 L 492.89594,466.21405 L 492.35019,343.48701 L 484.38018,343.48701 L 476.41016,343.48701 L 476.41016,664.14446 C 476.41016,1015.6449 477.20541,992.30562 464.78255,1005.3947 C 454.96943,1015.734 444.96244,1019.6452 428.32119,1019.6452 C 411.67995,1019.6452 401.67295,1015.734 391.85984,1005.3947 C 379.6788,992.56041 380.23223,1002.5082 380.23223,796.3891 L 380.23223,607.97631 L 372.2174,607.97631 L 364.20257,607.97631 L 364.20257,796.3891 C 364.20257,949.93319 363.70254,985.99515 361.50065,991.24959 C 357.46396,1000.8825 348.6824,1010.38 339.46404,1015.0829 C 330.57932,1019.6155 310.40822,1021.7222 302.07468,1018.9879 z M 347.1449,193.72648 C 322.92259,185.07506 307.9519,171.7394 297.35531,149.37467 C 291.49021,136.996 291.06727,134.61803 291.06727,114.02045 C 291.06727,93.178545 291.43138,91.197919 297.54651,78.776333 C 328.09011,16.733472 416.2698,16.581356 446.76157,78.518927 C 453.07499,91.343304 453.36753,92.959846 453.36753,115.02231 C 453.36753,136.24035 452.91461,139.02936 447.76661,149.51259 C 439.11869,167.12288 426.3456,179.96367 408.89892,188.58629 C 395.35312,195.28098 391.91342,196.11457 375.4939,196.68179 C 361.71596,197.15774 354.7057,196.42694 347.1449,193.72648 z "
       id="path2558" />
  </g>
</svg>

<svg xmlns="http://www.w3.org/2000/svg" width="745" height="1052" viewBox="0 0 745 1052"><path d="M302.075 1018.988c-15.82-5.19-28.348-16.866-31.926-29.752-1.426-5.135-2.106-110.18-2.113-326.659l-.011-319.09h-16.03v120.45c0 118.08-.082 120.594-4.143 127.737-5.26 9.251-11.169 13.586-22.73 16.678-17.094 4.572-35.789-4.158-42.502-19.847-4.319-10.095-4.038-279.339.31-296.03 9.799-37.62 41.532-68.442 78.543-76.285 19.496-4.131 199.75-4.182 219.189-.062 19.8 4.197 36.807 13.69 51.855 28.946 15.478 15.692 22.703 28.421 28.093 49.493 3.756 14.688 3.963 22.554 3.963 150.492 0 116.95-.412 135.98-3.082 142.37-4.151 9.936-8.423 14.405-17.957 18.783-15.82 7.264-35.927 2.59-45.281-10.525l-4.811-6.746-.546-122.727-.546-122.727h-15.94v320.657c0 351.5.795 328.162-11.627 341.25-9.814 10.34-19.82 14.251-36.462 14.251-16.641 0-26.648-3.911-36.461-14.25-12.181-12.835-11.628-2.887-11.628-209.006V607.976h-16.029V796.39c0 153.544-.5 189.606-2.702 194.86-4.037 9.634-12.819 19.131-22.037 23.834-8.885 4.533-29.056 6.64-37.39 3.905zm45.07-825.262c-24.222-8.65-39.193-21.987-49.79-44.351-5.865-12.379-6.288-14.757-6.288-35.355 0-20.841.364-22.822 6.48-35.244 30.543-62.043 118.723-62.195 149.215-.257 6.313 12.824 6.606 14.44 6.606 36.503 0 21.218-.453 24.007-5.601 34.49-8.648 17.61-21.421 30.452-38.868 39.074-13.546 6.695-16.986 7.529-33.405 8.096-13.778.476-20.788-.255-28.35-2.956z"/></svg>
